packages/symbols/svgs/outline/thumbs-down-outline.svg

<svg width="24" height="24" viewBox="0 0 24 24" fill="none" xmlns="http://www.w3.org/2000/svg">
<g clip-path="url(#clip0_1150_5523)">
<path fill-rule="evenodd" clip-rule="evenodd" d="M0 1C0 0.447715 0.447715 0 1 0H6C6.55228 0 7 0.447715 7 1C7 1.55228 6.55228 2 6 2H2V11H6C6.55228 11 7 11.4477 7 12C7 12.5523 6.55228 13 6 13H1C0.447715 13 0 12.5523 0 12V1Z" fill="black"/>
<path fill-rule="evenodd" clip-rule="evenodd" d="M5 1C5 0.447715 5.44772 0 6 0H18.427C19.3818 0.00100046 20.3048 0.343489 21.0291 0.965577C21.7533 1.58765 22.2312 2.44827 22.3764 3.39193C22.3764 3.39195 22.3764 3.39191 22.3764 3.39193L23.4534 10.3919C23.541 10.9619 23.5044 11.5442 23.346 12.0987C23.1876 12.6532 22.9112 13.1669 22.5357 13.6045C22.1602 14.0422 21.6945 14.3935 21.1705 14.6344C20.6466 14.8753 20.0767 15 19.5 15H13V20C13 21.0609 12.5786 22.0783 11.8284 22.8284C11.0783 23.5786 10.0609 24 9 24C8.54905 24 8.15389 23.6982 8.03524 23.2631L5.03524 12.2631C5.01185 12.1774 5 12.0889 5 12V1ZM7 2V11.8661L9.72653 21.8634C9.98194 21.7638 10.2166 21.6118 10.4142 21.4142C10.7893 21.0391 11 20.5304 11 20V14C11 13.4477 11.4477 13 12 13H19.5C19.5 13 19.4999 13 19.5 13C19.7883 13 20.0732 12.9376 20.3352 12.8172C20.5972 12.6968 20.83 12.5211 21.0178 12.3023C21.2055 12.0834 21.3437 11.8266 21.4229 11.5493C21.5021 11.2721 21.5204 10.981 21.4766 10.6961C21.4766 10.696 21.4766 10.6961 21.4766 10.6961L20.3996 3.69607C20.3271 3.22422 20.0881 2.79383 19.726 2.48279C19.3639 2.17184 18.9026 2.00061 18.4254 2H7Z" fill="black"/>
</g>
<defs>
<clipPath id="clip0_1150_5523">
<rect width="24" height="24" fill="white"/>
</clipPath>
</defs>
</svg>

<svg width="24" height="24" viewBox="0 0 24 24" xmlns="http://www.w3.org/2000/svg"><g clip-path="url(#a)" fill-rule="evenodd" clip-rule="evenodd"><path d="M0 1a1 1 0 0 1 1-1h5a1 1 0 0 1 0 2H2v9h4a1 1 0 1 1 0 2H1a1 1 0 0 1-1-1V1Z"/><path d="M5 1a1 1 0 0 1 1-1h12.427a4 4 0 0 1 3.95 3.392l1.076 7A4.001 4.001 0 0 1 19.5 15H13v5a4 4 0 0 1-4 4 1 1 0 0 1-.965-.737l-3-11A1 1 0 0 1 5 12V1Zm2 1v9.866l2.727 9.997A2 2 0 0 0 11 20v-6a1 1 0 0 1 1-1h7.5a2 2 0 0 0 1.977-2.304l-1.077-7A2 2 0 0 0 18.425 2H7Z"/></g><defs><clipPath id="a"><path fill="#fff" d="M0 0h24v24H0z"/></clipPath></defs></svg>
